X:1
T:Latchford, 66.66.88
T:William Statham, 1875
T:Latchford, 66.66.88
T:Public Domain
C:William Statham, 1875
Z:Public Domain
%%score ( 1 2 ) ( 3 4 )
L:1/8
M:none
K:F
V:1 treble 
V:2 treble 
V:3 bass 
V:4 bass 
V:1
 [Fc]2 | [FA]2 [CF]2 [CD]2 [B,F]2 | [A,C]6 [B,C]2 | [A,F]2 [CG]2 F2 z G x | [EG]6 [_Ec]2 | %5
 [DA]2 [Dd]2 [DB]2 [CA]2 | [DG]6 [A,_E]2 | [B,D]2 G2 A2 z G x | [DG]4 [DB]4 | A2 z ^C [DG]2 F2 | %10
 [Fd]2 (cB) [FA]2 [Bc]2 | [Af]2 [FA]2 [Fc]2 F2 x | [FA]2 [EG]2 F2 |] %13
V:2
 x2 | x8 | x8 | x4 A3 F2 | x8 | x8 | x8 | x2 G2 G3 ^F2 | x8 | D3 (E2 x F2) | x2 E2 x4 | x6 F2 x | %12
 x4 F2 |] %13
V:3
 [F,A,]2 | [F,C]2 [A,,F,]2 [B,,F,]2 [D,F,]2 | F,6 [E,G,]2 | [F,C]2 [E,C]2 [D,C]2 [G,,=B,]2 x | %4
 [C,C]6 [C,G,]2 | [D,^F,]2 [^F,,A,]2 [G,,G,]2 [A,,F,]2 | [B,,G,]6 [C,G,]2 | %7
 [D,G,]2 [D,B,]2 [D,C]2 [D,C]2 x | [G,B,]4 [E,G,]4 | [F,A,]2 ([G,B,]A,) [B,D]2 [A,D]2 | %10
 [G,B,]2 [C,C]2 [F,C]2 [E,G,]2 | [_E,C]2 [C,_E]2 A,,2 z D x | C,2 z B, [F,A,]2 |] %13
V:4
 x2 | x8 | F,6 x2 | x9 | x8 | x8 | x8 | x9 | x8 | x8 | x8 | x4 _E3 B,,2 | C3 C,2 x |] %13

